X:1
T:The Lords Prayer
T:The Lords Prayer
T:John Playford
T:Source : The Whole Book of Psalms---London---W.Godbid---1677. Editor : André Vierendeels (27/08/16).
T:Notes : Original Clefs : G2, G2, F4, F4(BC) Editorial accidentals above the staff Original note values have been halved, except m 3, 6, 9, 12, 15 and 18   
T:©
T:©
C:John Playford
Z:©
%%score [ 1 2 ] 3
L:1/8
Q:1/4=120
M:2/2
K:F
V:1 treble nm="Soprano" snm="S"
V:2 treble-8 nm="Tenor" snm="T"
V:3 bass nm="MusicXML Part"
V:1
 A4 A2 F2 | G2 A2 F2 E2 | D8 || A4 A2 G2 | c2 A2 F2 G2 | A8 || A4 d2 e2 | f2 e2 d2 ^c2 | d8 || %9
w: Our Fa- ther|which in hea- ven|art!|Thy name be|hal- low'd by each|heart:-|Thy king- dom|come, thy will be|done|
w: For- give our|tres- pas- ses, as|we|for- giv' them,|where we tres- pass'd|be:|To no temp-|ta- tion lead our|will:|
 d4 e2 d2 | c2 =B2 A2 ^G2 | A8 || d4 c2 =B2 | c2 A2 A2 G2 | F8 || A4 B2 A2 | F2 G2 F2 E2 | D8 |] %18
w: in earth as|'tis in heav'n thy|throne.|Give us this|day our dai- ly|bread,|that souls and|bo- dies may be|fed.|
w: But us de-|li- ver from all|ill:|For thine the|king- dom and the|pow'r,|and glo- ry|is for e- ver-|more.|
V:2
 F4 E2 D2 | d2 d2 d2 ^c2 | d8 || d4 d2 c2 | A2 c2 d2 d2 | ^c8 || c4 A2 ^c2 | d2 e2 f2 e2 | d8 || %9
w: Our Fa- ther|which in hea- ven|art!|Thy name be|hal- low'd by each|heart:|Thy king- dom|come, thy will be|done|
w: For- give our|tres- pas- ses, as|we|for- giv' them,|where we tres- pass'd|be:|To no temp-|ta- tion lead our|will:|
 A4 G2 F2 | E2 ^G2 A2 =B2 | A8 || A4 A2 G2 | G2 F2 F2 E2 | F8 || F4 G2 A2 | B2 d2 d2 ^c2 | d8 |] %18
w: in earth as|'tis in heav'n thy|throne.|Give us this|day our dai- ly|bread,|that souls and|bo- dies may be|fed.|
w: But us de-|li- ver from all|ill:|For thine the|king- dom and the|pow'r,|and glo- ry|is for e- ver-|more.|
V:3
"^BC""^Bass" D,4 ^C,2 D,2 | B,,2 F,,2 G,,2 A,,2 | D,8 || D,4 F,2 E,2 | C,2 F,2 D,2 B,,2 | A,,8 || %6
w: Our Fa- ther|which in hea- ven|art!|Thy name be|hal- low'd by each|heart:|
w: For- give our|tres- pas- ses, as|we|for- giv' them,|where we tres- pass'd|be:|
"^BC""^B" F,4 F,2 E,2 | D,2 ^C,2 D,2 A,2 | D,8 || D,4 ^C,2 D,2 | A,,2 E,2 F,2 E,2 | A,,8 || %12
w: Thy king- dom|come, thy will be|done|in earth as|'tis in heav'n thy|throne.|
w: To no temp-|ta- tion lead our|will:|But us de-|li- ver from all|ill:|
"^BC""^B" D,4 ^F,2 G,2 | E,2 F,2 B,,2 C,2 | F,,8 || F,4 B,,2 C,2 | D,2 G,,2 A,,2 A,,2 | D,8 |] %18
w: Give us this|day our dai- ly|bread,|that souls and|bo- dies may be|fed.|
w: For thine the|king- dom and the|pow'r,|and glo- ry|is for e- ver-|more.|

